TV/Source/Televizia Lux - Dark.svg

<svg height="2.792764mm" viewBox="0 0 4.0209613 2.7927644" width="4.020961mm" xmlns="http://www.w3.org/2000/svg" xmlns:xlink="http://www.w3.org/1999/xlink"><clipPath id="a"><path d="m299.091 427.541h16.405v8.067h-16.405z"/></clipPath><g transform="translate(-74.213554 -108.10088)"><g clip-path="url(#a)" transform="matrix(.35277777 0 0 -.35277777 -31.298994 261.7737)"><g transform="translate(302.166 435.2273)"><path d="m0 0c .134-.03-.546-1.378-.773-2.166-.234-.813-.281-1.453.042-1.646.394-.235.991-.201 1.337-.185.238.011.441.018.597.025.096.004.187.013.242.014.043 0 .075 0 .096-.008.012-.003.023-.013.024-.025 0-.01-.003-.02-.008-.03-.009-.014-.026-.036-.071-.064-.236-.149-1.214-.496-2.247-.589-.427-.039-.591-.045-.829-.021-.357.035-.545.216-.565.517-.036.541.638 1.856.888 2.286.093.16.459.781.656 1.082.223.338.469.696.561.785.014.013.031.029.05.025"/></g><g transform="translate(302.1157 435.202)"><path d="m0 0c-.092-.089-.337-.447-.56-.785-.198-.3-.563-.921-.657-1.082-.25-.43-.924-1.745-.888-2.286.02-.301.208-.482.565-.517.238-.024.403-.017.829.021 1.034.093 2.012.44 2.248.589.045.028.061.05.07.065.006.009.008.019.008.029 0 .012-.012.022-.024.026-.021.007-.052.007-.095.007-.056 0-.146-.01-.243-.014-.156-.007-.359-.014-.596-.025-.347-.015-.944-.049-1.338.185-.323.193-.276.833-.042 1.647.227.788.907 2.135.773 2.165-.002.001-.004.001-.006.001-.017 0-.032-.014-.044-.026"/></g><g transform="translate(299.9595 435.6082)"><path d="m0 0c-.48 0-.869-.4-.869-.894v-3.727c0-.494.389-.895.869-.895h3.666c.48 0 .869.401.869.895v3.727c0 .494-.389.894-.869.894zm-.667-4.474v3.422c0 .504.327.861.834.861h3.353c.507 0 .825-.35.825-.854v-3.476c0-.505-.365-.776-.872-.776h-3.385c-.508 0-.755.319-.755.823"/></g><g transform="translate(299.9595 435.6081)"><path d="m0 0c-.48 0-.869-.4-.869-.894v-3.727c0-.494.389-.894.869-.894h3.666c.48 0 .869.4.869.894v3.727c0 .494-.389.894-.869.894zm-.667-4.474v3.422c0 .504.327.861.834.861h3.353c.507 0 .825-.35.825-.854v-3.476c0-.504-.365-.776-.872-.776h-3.385c-.508 0-.755.319-.755.823"/></g><g transform="translate(307.1881 434.7485)"><path d="m0 0v-2.662c0-.591-.296-.844-.708-.844-.391 0-.717.233-.717.925v2.581h-.236v-2.758c0-.535.457-.95.953-.95.402 0 .944.288.944 1.006v2.702z"/></g><g transform="translate(307.1881 434.7485)"><path d="m0 0v-2.662c0-.591-.296-.844-.708-.844-.391 0-.717.233-.717.925v2.581h-.236v-2.758c0-.535.456-.95.953-.95.402 0 .944.288.944 1.006v2.702z"/></g><g transform="translate(310.1692 434.7485)"><path d="m0 0-.677-1.571-.678 1.571h-.281l.848-1.798-.873-1.839h.281l.697 1.611.708-1.611h.281l-.863 1.834.838 1.803z"/></g><g transform="translate(310.1692 434.7485)"><path d="m0 0-.677-1.571-.678 1.571h-.281l.848-1.798-.873-1.839h.281l.697 1.611.708-1.611h.281l-.863 1.834.838 1.803z"/></g><g transform="translate(299.0905 429.2056)"><path d="m0 0v-.133h.496v-1.381h.185v1.381h.505v.133z"/></g><g transform="translate(299.0905 429.2056)"><path d="m0 0v-.133h.496v-1.381h.185v1.381h.505v.133z"/></g></g><path d="m0 0v-.132h.496v-1.382h.184v1.382h.506v.132z" transform="matrix(.35277777 0 0 -.35277777 74.213554 110.35954)"/><g transform="matrix(.35277777 0 0 -.35277777 74.800294 110.35954)"><path d="m0 0v-1.514h.94v.133h-.755v.578h.53v.132h-.53v.539h.737v.132z"/><path d="m0 0v-1.514h.94v.133h-.755v.578h.53v.132h-.53v.539h.737v.132z"/><path d="m0 0v-1.514h.94v.133h-.755v.578h.53v.132h-.53v.539h.737v.132z"/></g><path d="m0 0v-1.514h.954v.133h-.769v1.381z" transform="matrix(.35277777 0 0 -.35277777 75.294641 110.35954)"/><path d="m0 0v-1.514h.954v.133h-.769v1.381z" transform="matrix(.35277777 0 0 -.35277777 75.294641 110.35954)"/><path d="m0 0v-1.514h.954v.133h-.769v1.381z" transform="matrix(.35277777 0 0 -.35277777 75.294641 110.35954)"/><path d="m0 0v-1.514h.94v.133h-.755v.578h.53v.132h-.53v.539h.737v.132z" transform="matrix(.35277777 0 0 -.35277777 75.799784 110.35954)"/><path d="m0 0v-1.514h.94v.133h-.755v.578h.53v.132h-.53v.539h.737v.132z" transform="matrix(.35277777 0 0 -.35277777 75.799784 110.35954)"/><path d="m0 0v-1.514h.94v.133h-.755v.578h.53v.132h-.53v.539h.737v.132z" transform="matrix(.35277777 0 0 -.35277777 75.799784 110.35954)"/><path d="m0 0-.319-1.272h-.004l-.32 1.272h-.203l.394-1.514h.255l.401 1.514z" transform="matrix(.35277777 0 0 -.35277777 76.590041 110.35954)"/><path d="m0 0-.319-1.272h-.004l-.32 1.272h-.203l.394-1.514h.255l.401 1.514z" transform="matrix(.35277777 0 0 -.35277777 76.590041 110.35954)"/><path d="m0 0-.319-1.272h-.004l-.32 1.272h-.203l.394-1.514h.255l.401 1.514z" transform="matrix(.35277777 0 0 -.35277777 76.590041 110.35954)"/><path d="m0 0 .095-.103.476.271-.134.131z" transform="matrix(.35277777 0 0 -.35277777 76.845946 110.29191)"/><path d="m0 0 .095-.103.476.271-.134.131z" transform="matrix(.35277777 0 0 -.35277777 76.845946 110.29191)"/><path d="m0 0 .095-.103.476.271-.134.131z" transform="matrix(.35277777 0 0 -.35277777 76.845946 110.29191)"/><path d="m0 0v-.132h.713l-.741-1.268v-.114h1.012v.133h-.79l.73 1.269v.112z" transform="matrix(.35277777 0 0 -.35277777 77.063116 110.35954)"/><path d="m0 0v-.132h.713l-.741-1.268v-.114h1.012v.133h-.79l.73 1.269v.112z" transform="matrix(.35277777 0 0 -.35277777 77.063116 110.35954)"/><path d="m0 0v-.132h.713l-.741-1.268v-.114h1.012v.133h-.79l.73 1.269v.112z" transform="matrix(.35277777 0 0 -.35277777 77.063116 110.35954)"/><path d="m0 0h .2l.157.411h.54l.159-.411h.199l-.629 1.514zm.626 1.099.227-.565h-.452z" transform="matrix(.35277777 0 0 -.35277777 77.791779 110.89357)"/><path d="m0 0h .2l.157.411h.54l.159-.411h.199l-.629 1.514zm.626 1.099.227-.565h-.452z" transform="matrix(.35277777 0 0 -.35277777 77.791779 110.89357)"/><path d="m0 0h .2l.157.411h.54l.159-.411h.199l-.629 1.514zm.626 1.099.227-.565h-.452z" transform="matrix(.35277777 0 0 -.35277777 77.791779 110.89357)"/><path d="m76.830212 110.89347h.06526v-.53411h-.06526z"/><path d="m76.830212 110.89347h.06526v-.53411h-.06526z"/><path d="m76.830212 110.89347h.06526v-.53411h-.06526z"/><path d="m77.557993 110.89347h.06526v-.53411h-.06526z"/><path d="m77.557993 110.89347h.06526v-.53411h-.06526z"/><path d="m77.557993 110.89347h.06526v-.53411h-.06526z"/></g></svg>

<?xml version="1.0" encoding="UTF-8" standalone="no"?>
<!-- Created with Inkscape (http://www.inkscape.org/) -->

<svg
   xmlns:dc="http://purl.org/dc/elements/1.1/"
   xmlns:cc="http://creativecommons.org/ns#"
   xmlns:rdf="http://www.w3.org/1999/02/22-rdf-syntax-ns#"
   xmlns:svg="http://www.w3.org/2000/svg"
   xmlns="http://www.w3.org/2000/svg"
   xmlns:sodipodi="http://sodipodi.sourceforge.net/DTD/sodipodi-0.dtd"
   xmlns:inkscape="http://www.inkscape.org/namespaces/inkscape"
   width="4.0209613mm"
   height="2.7927644mm"
   viewBox="0 0 4.0209613 2.7927644"
   version="1.1"
   id="svg43488"
   sodipodi:docname="Televizia Lux - Dark.svg"
   inkscape:version="0.92.0 r15299">
  <defs
     id="defs43482">
    <clipPath
       clipPathUnits="userSpaceOnUse"
       id="clipPath22830">
      <path
         d="m 299.091,427.541 h 16.405 v 8.067 h -16.405 z"
         id="path22828"
         inkscape:connector-curvature="0" />
    </clipPath>
    <clipPath
       clipPathUnits="userSpaceOnUse"
       id="clipPath22678">
      <path
         d="m 299.091,427.541 h 16.405 v 8.067 h -16.405 z"
         id="path22676"
         inkscape:connector-curvature="0" />
    </clipPath>
  </defs>
  <sodipodi:namedview
     id="base"
     pagecolor="#ffffff"
     bordercolor="#666666"
     borderopacity="1.0"
     inkscape:pageopacity="0.0"
     inkscape:pageshadow="2"
     inkscape:zoom="31.678384"
     inkscape:cx="8.5237543"
     inkscape:cy="5.1875236"
     inkscape:document-units="mm"
     inkscape:current-layer="layer1"
     showgrid="false"
     fit-margin-top="0"
     fit-margin-left="0"
     fit-margin-right="0"
     fit-margin-bottom="0"
     inkscape:window-width="1920"
     inkscape:window-height="1017"
     inkscape:window-x="-8"
     inkscape:window-y="-8"
     inkscape:window-maximized="1" />
  <metadata
     id="metadata43485">
    <rdf:RDF>
      <cc:Work
         rdf:about="">
        <dc:format>image/svg+xml</dc:format>
        <dc:type
           rdf:resource="http://purl.org/dc/dcmitype/StillImage" />
        <dc:title></dc:title>
      </cc:Work>
    </rdf:RDF>
  </metadata>
  <g
     inkscape:label="Layer 1"
     inkscape:groupmode="layer"
     id="layer1"
     transform="translate(-74.213554,-108.10088)">
    <g
       transform="matrix(0.35277777,0,0,-0.35277777,-31.298994,261.7737)"
       id="g22672">
      <g
         id="g22674"
         clip-path="url(#clipPath22678)">
        <g
           id="g22680"
           transform="translate(302.166,435.2273)">
          <path
             d="m 0,0 c 0.134,-0.03 -0.546,-1.378 -0.773,-2.166 -0.234,-0.813 -0.281,-1.453 0.042,-1.646 0.394,-0.235 0.991,-0.201 1.337,-0.185 0.238,0.011 0.441,0.018 0.597,0.025 0.096,0.004 0.187,0.013 0.242,0.014 0.043,0 0.075,0 0.096,-0.008 0.012,-0.003 0.023,-0.013 0.024,-0.025 0,-0.01 -0.003,-0.02 -0.008,-0.03 C 1.548,-4.035 1.531,-4.057 1.486,-4.085 1.25,-4.234 0.272,-4.581 -0.761,-4.674 -1.188,-4.713 -1.352,-4.719 -1.59,-4.695 c -0.357,0.035 -0.545,0.216 -0.565,0.517 -0.036,0.541 0.638,1.856 0.888,2.286 0.093,0.16 0.459,0.781 0.656,1.082 0.223,0.338 0.469,0.696 0.561,0.785 C -0.036,-0.012 -0.019,0.004 0,0"
             style="fill:#000000;fill-opacity:1;fill-rule:nonzero;stroke:none"
             id="path22682"
             inkscape:connector-curvature="0" />
        </g>
        <g
           id="g22684"
           transform="translate(302.1157,435.202)">
          <path
             d="m 0,0 c -0.092,-0.089 -0.337,-0.447 -0.56,-0.785 -0.198,-0.3 -0.563,-0.921 -0.657,-1.082 -0.25,-0.43 -0.924,-1.745 -0.888,-2.286 0.02,-0.301 0.208,-0.482 0.565,-0.517 0.238,-0.024 0.403,-0.017 0.829,0.021 1.034,0.093 2.012,0.44 2.248,0.589 0.045,0.028 0.061,0.05 0.07,0.065 0.006,0.009 0.008,0.019 0.008,0.029 0,0.012 -0.012,0.022 -0.024,0.026 C 1.57,-3.933 1.539,-3.933 1.496,-3.933 1.44,-3.933 1.35,-3.943 1.253,-3.947 1.097,-3.954 0.894,-3.961 0.657,-3.972 0.31,-3.987 -0.287,-4.021 -0.681,-3.787 -1.004,-3.594 -0.957,-2.954 -0.723,-2.14 -0.496,-1.352 0.184,-0.005 0.05,0.025 0.048,0.026 0.046,0.026 0.044,0.026 0.027,0.026 0.012,0.012 0,0"
             style="fill:#000000;fill-opacity:1;fill-rule:nonzero;stroke:none"
             id="path22686"
             inkscape:connector-curvature="0" />
        </g>
        <g
           id="g22688"
           transform="translate(299.9595,435.6082)">
          <path
             d="m 0,0 c -0.48,0 -0.869,-0.4 -0.869,-0.894 v -3.727 c 0,-0.494 0.389,-0.895 0.869,-0.895 h 3.666 c 0.48,0 0.869,0.401 0.869,0.895 v 3.727 C 4.535,-0.4 4.146,0 3.666,0 Z m -0.667,-4.474 v 3.422 c 0,0.504 0.327,0.861 0.834,0.861 H 3.52 c 0.507,0 0.825,-0.35 0.825,-0.854 v -3.476 c 0,-0.505 -0.365,-0.776 -0.872,-0.776 H 0.088 c -0.508,0 -0.755,0.319 -0.755,0.823"
             style="fill:#000000;fill-opacity:1;fill-rule:nonzero;stroke:none"
             id="path22690"
             inkscape:connector-curvature="0" />
        </g>
        <g
           id="g22692"
           transform="translate(299.9595,435.6081)">
          <path
             d="m 0,0 c -0.48,0 -0.869,-0.4 -0.869,-0.894 v -3.727 c 0,-0.494 0.389,-0.894 0.869,-0.894 h 3.666 c 0.48,0 0.869,0.4 0.869,0.894 v 3.727 C 4.535,-0.4 4.146,0 3.666,0 Z m -0.667,-4.474 v 3.422 c 0,0.504 0.327,0.861 0.834,0.861 H 3.52 c 0.507,0 0.825,-0.35 0.825,-0.854 v -3.476 c 0,-0.504 -0.365,-0.776 -0.872,-0.776 H 0.088 c -0.508,0 -0.755,0.319 -0.755,0.823"
             style="fill:#000000;fill-opacity:1;fill-rule:nonzero;stroke:none"
             id="path22694"
             inkscape:connector-curvature="0" />
        </g>
        <g
           id="g22696"
           transform="translate(307.1881,434.7485)">
          <path
             d="m 0,0 v -2.662 c 0,-0.591 -0.296,-0.844 -0.708,-0.844 -0.391,0 -0.717,0.233 -0.717,0.925 V 0 h -0.236 v -2.758 c 0,-0.535 0.457,-0.95 0.953,-0.95 0.402,0 0.944,0.288 0.944,1.006 V 0 Z"
             style="fill:#000000;fill-opacity:1;fill-rule:nonzero;stroke:none"
             id="path22698"
             inkscape:connector-curvature="0" />
        </g>
        <g
           id="g22700"
           transform="translate(307.1881,434.7485)">
          <path
             d="m 0,0 v -2.662 c 0,-0.591 -0.296,-0.844 -0.708,-0.844 -0.391,0 -0.717,0.233 -0.717,0.925 V 0 h -0.236 v -2.758 c 0,-0.535 0.456,-0.95 0.953,-0.95 0.402,0 0.944,0.288 0.944,1.006 V 0 Z"
             style="fill:#000000;fill-opacity:1;fill-rule:nonzero;stroke:none"
             id="path22702"
             inkscape:connector-curvature="0" />
        </g>
        <g
           id="g22704"
           transform="translate(310.1692,434.7485)">
          <path
             d="M 0,0 -0.677,-1.571 -1.355,0 h -0.281 l 0.848,-1.798 -0.873,-1.839 h 0.281 l 0.697,1.611 0.708,-1.611 H 0.306 L -0.557,-1.803 0.281,0 Z"
             style="fill:#000000;fill-opacity:1;fill-rule:nonzero;stroke:none"
             id="path22706"
             inkscape:connector-curvature="0" />
        </g>
        <g
           id="g22708"
           transform="translate(310.1692,434.7485)">
          <path
             d="M 0,0 -0.677,-1.571 -1.355,0 h -0.281 l 0.848,-1.798 -0.873,-1.839 h 0.281 l 0.697,1.611 0.708,-1.611 H 0.306 L -0.557,-1.803 0.281,0 Z"
             style="fill:#000000;fill-opacity:1;fill-rule:nonzero;stroke:none"
             id="path22710"
             inkscape:connector-curvature="0" />
        </g>
        <g
           id="g22712"
           transform="translate(299.0905,429.2056)">
          <path
             d="m 0,0 v -0.133 h 0.496 v -1.381 h 0.185 v 1.381 H 1.186 V 0 Z"
             style="fill:#000000;fill-opacity:1;fill-rule:nonzero;stroke:none"
             id="path22714"
             inkscape:connector-curvature="0" />
        </g>
        <g
           id="g22716"
           transform="translate(299.0905,429.2056)">
          <path
             d="m 0,0 v -0.133 h 0.496 v -1.381 h 0.185 v 1.381 H 1.186 V 0 Z"
             style="fill:#000000;fill-opacity:1;fill-rule:nonzero;stroke:none"
             id="path22718"
             inkscape:connector-curvature="0" />
        </g>
      </g>
    </g>
    <g
       id="g22720"
       transform="matrix(0.35277777,0,0,-0.35277777,74.213554,110.35954)">
      <path
         d="M 0,0 V -0.132 H 0.496 V -1.514 H 0.68 v 1.382 H 1.186 V 0 Z"
         style="fill:#000000;fill-opacity:1;fill-rule:nonzero;stroke:none"
         id="path22722"
         inkscape:connector-curvature="0" />
    </g>
    <g
       id="g22724"
       transform="matrix(0.35277777,0,0,-0.35277777,74.800294,110.35954)">
      <path
         d="m 0,0 v -1.514 h 0.94 v 0.133 H 0.185 v 0.578 h 0.53 v 0.132 h -0.53 v 0.539 H 0.922 V 0 Z"
         style="fill:#000000;fill-opacity:1;fill-rule:nonzero;stroke:none"
         id="path22726"
         inkscape:connector-curvature="0" />
    </g>
    <g
       id="g22728"
       transform="matrix(0.35277777,0,0,-0.35277777,74.800294,110.35954)">
      <path
         d="m 0,0 v -1.514 h 0.94 v 0.133 H 0.185 v 0.578 h 0.53 v 0.132 h -0.53 v 0.539 H 0.922 V 0 Z"
         style="fill:#000000;fill-opacity:1;fill-rule:nonzero;stroke:none"
         id="path22730"
         inkscape:connector-curvature="0" />
    </g>
    <g
       id="g22732"
       transform="matrix(0.35277777,0,0,-0.35277777,74.800294,110.35954)">
      <path
         d="m 0,0 v -1.514 h 0.94 v 0.133 H 0.185 v 0.578 h 0.53 v 0.132 h -0.53 v 0.539 H 0.922 V 0 Z"
         style="fill:#000000;fill-opacity:1;fill-rule:nonzero;stroke:none"
         id="path22734"
         inkscape:connector-curvature="0" />
    </g>
    <g
       id="g22736"
       transform="matrix(0.35277777,0,0,-0.35277777,75.294641,110.35954)">
      <path
         d="m 0,0 v -1.514 h 0.954 v 0.133 H 0.185 V 0 Z"
         style="fill:#000000;fill-opacity:1;fill-rule:nonzero;stroke:none"
         id="path22738"
         inkscape:connector-curvature="0" />
    </g>
    <g
       id="g22740"
       transform="matrix(0.35277777,0,0,-0.35277777,75.294641,110.35954)">
      <path
         d="m 0,0 v -1.514 h 0.954 v 0.133 H 0.185 V 0 Z"
         style="fill:#000000;fill-opacity:1;fill-rule:nonzero;stroke:none"
         id="path22742"
         inkscape:connector-curvature="0" />
    </g>
    <g
       id="g22744"
       transform="matrix(0.35277777,0,0,-0.35277777,75.294641,110.35954)">
      <path
         d="m 0,0 v -1.514 h 0.954 v 0.133 H 0.185 V 0 Z"
         style="fill:#000000;fill-opacity:1;fill-rule:nonzero;stroke:none"
         id="path22746"
         inkscape:connector-curvature="0" />
    </g>
    <g
       id="g22748"
       transform="matrix(0.35277777,0,0,-0.35277777,75.799784,110.35954)">
      <path
         d="m 0,0 v -1.514 h 0.94 v 0.133 H 0.185 v 0.578 h 0.53 v 0.132 h -0.53 v 0.539 H 0.922 V 0 Z"
         style="fill:#000000;fill-opacity:1;fill-rule:nonzero;stroke:none"
         id="path22750"
         inkscape:connector-curvature="0" />
    </g>
    <g
       id="g22752"
       transform="matrix(0.35277777,0,0,-0.35277777,75.799784,110.35954)">
      <path
         d="m 0,0 v -1.514 h 0.94 v 0.133 H 0.185 v 0.578 h 0.53 v 0.132 h -0.53 v 0.539 H 0.922 V 0 Z"
         style="fill:#000000;fill-opacity:1;fill-rule:nonzero;stroke:none"
         id="path22754"
         inkscape:connector-curvature="0" />
    </g>
    <g
       id="g22756"
       transform="matrix(0.35277777,0,0,-0.35277777,75.799784,110.35954)">
      <path
         d="m 0,0 v -1.514 h 0.94 v 0.133 H 0.185 v 0.578 h 0.53 v 0.132 h -0.53 v 0.539 H 0.922 V 0 Z"
         style="fill:#000000;fill-opacity:1;fill-rule:nonzero;stroke:none"
         id="path22758"
         inkscape:connector-curvature="0" />
    </g>
    <g
       id="g22760"
       transform="matrix(0.35277777,0,0,-0.35277777,76.590041,110.35954)">
      <path
         d="M 0,0 -0.319,-1.272 H -0.323 L -0.643,0 h -0.203 l 0.394,-1.514 h 0.255 L 0.204,0 Z"
         style="fill:#000000;fill-opacity:1;fill-rule:nonzero;stroke:none"
         id="path22762"
         inkscape:connector-curvature="0" />
    </g>
    <g
       id="g22764"
       transform="matrix(0.35277777,0,0,-0.35277777,76.590041,110.35954)">
      <path
         d="M 0,0 -0.319,-1.272 H -0.323 L -0.643,0 h -0.203 l 0.394,-1.514 h 0.255 L 0.204,0 Z"
         style="fill:#000000;fill-opacity:1;fill-rule:nonzero;stroke:none"
         id="path22766"
         inkscape:connector-curvature="0" />
    </g>
    <g
       id="g22768"
       transform="matrix(0.35277777,0,0,-0.35277777,76.590041,110.35954)">
      <path
         d="M 0,0 -0.319,-1.272 H -0.323 L -0.643,0 h -0.203 l 0.394,-1.514 h 0.255 L 0.204,0 Z"
         style="fill:#000000;fill-opacity:1;fill-rule:nonzero;stroke:none"
         id="path22770"
         inkscape:connector-curvature="0" />
    </g>
    <g
       id="g22772"
       transform="matrix(0.35277777,0,0,-0.35277777,76.845946,110.29191)">
      <path
         d="M 0,0 0.095,-0.103 0.571,0.168 0.437,0.299 Z"
         style="fill:#000000;fill-opacity:1;fill-rule:nonzero;stroke:none"
         id="path22774"
         inkscape:connector-curvature="0" />
    </g>
    <g
       id="g22776"
       transform="matrix(0.35277777,0,0,-0.35277777,76.845946,110.29191)">
      <path
         d="M 0,0 0.095,-0.103 0.571,0.168 0.437,0.299 Z"
         style="fill:#000000;fill-opacity:1;fill-rule:nonzero;stroke:none"
         id="path22778"
         inkscape:connector-curvature="0" />
    </g>
    <g
       id="g22780"
       transform="matrix(0.35277777,0,0,-0.35277777,76.845946,110.29191)">
      <path
         d="M 0,0 0.095,-0.103 0.571,0.168 0.437,0.299 Z"
         style="fill:#000000;fill-opacity:1;fill-rule:nonzero;stroke:none"
         id="path22782"
         inkscape:connector-curvature="0" />
    </g>
    <g
       id="g22784"
       transform="matrix(0.35277777,0,0,-0.35277777,77.063116,110.35954)">
      <path
         d="M 0,0 V -0.132 H 0.713 L -0.028,-1.4 v -0.114 h 1.012 v 0.133 h -0.79 l 0.73,1.269 V 0 Z"
         style="fill:#000000;fill-opacity:1;fill-rule:nonzero;stroke:none"
         id="path22786"
         inkscape:connector-curvature="0" />
    </g>
    <g
       id="g22788"
       transform="matrix(0.35277777,0,0,-0.35277777,77.063116,110.35954)">
      <path
         d="M 0,0 V -0.132 H 0.713 L -0.028,-1.4 v -0.114 h 1.012 v 0.133 h -0.79 l 0.73,1.269 V 0 Z"
         style="fill:#000000;fill-opacity:1;fill-rule:nonzero;stroke:none"
         id="path22790"
         inkscape:connector-curvature="0" />
    </g>
    <g
       id="g22792"
       transform="matrix(0.35277777,0,0,-0.35277777,77.063116,110.35954)">
      <path
         d="M 0,0 V -0.132 H 0.713 L -0.028,-1.4 v -0.114 h 1.012 v 0.133 h -0.79 l 0.73,1.269 V 0 Z"
         style="fill:#000000;fill-opacity:1;fill-rule:nonzero;stroke:none"
         id="path22794"
         inkscape:connector-curvature="0" />
    </g>
    <g
       id="g22796"
       transform="matrix(0.35277777,0,0,-0.35277777,77.791779,110.89357)">
      <path
         d="m 0,0 h 0.2 l 0.157,0.411 h 0.54 L 1.056,0 H 1.255 L 0.626,1.514 Z M 0.626,1.099 0.853,0.534 H 0.401 Z"
         style="fill:#000000;fill-opacity:1;fill-rule:nonzero;stroke:none"
         id="path22798"
         inkscape:connector-curvature="0" />
    </g>
    <g
       id="g22800"
       transform="matrix(0.35277777,0,0,-0.35277777,77.791779,110.89357)">
      <path
         d="m 0,0 h 0.2 l 0.157,0.411 h 0.54 L 1.056,0 H 1.255 L 0.626,1.514 Z M 0.626,1.099 0.853,0.534 H 0.401 Z"
         style="fill:#000000;fill-opacity:1;fill-rule:nonzero;stroke:none"
         id="path22802"
         inkscape:connector-curvature="0" />
    </g>
    <g
       id="g22804"
       transform="matrix(0.35277777,0,0,-0.35277777,77.791779,110.89357)">
      <path
         d="m 0,0 h 0.2 l 0.157,0.411 h 0.54 L 1.056,0 H 1.255 L 0.626,1.514 Z M 0.626,1.099 0.853,0.534 H 0.401 Z"
         style="fill:#000000;fill-opacity:1;fill-rule:nonzero;stroke:none"
         id="path22806"
         inkscape:connector-curvature="0" />
    </g>
    <path
       d="m 76.830212,110.89347 h 0.06526 v -0.53411 h -0.06526 z"
       style="fill:#000000;fill-opacity:1;fill-rule:nonzero;stroke:none;stroke-width:0.35277775"
       id="path22808"
       inkscape:connector-curvature="0" />
    <path
       d="m 76.830212,110.89347 h 0.06526 v -0.53411 h -0.06526 z"
       style="fill:#000000;fill-opacity:1;fill-rule:nonzero;stroke:none;stroke-width:0.35277775"
       id="path22810"
       inkscape:connector-curvature="0" />
    <path
       d="m 76.830212,110.89347 h 0.06526 v -0.53411 h -0.06526 z"
       style="fill:#000000;fill-opacity:1;fill-rule:nonzero;stroke:none;stroke-width:0.35277775"
       id="path22812"
       inkscape:connector-curvature="0" />
    <path
       d="m 77.557993,110.89347 h 0.06526 v -0.53411 h -0.06526 z"
       style="fill:#000000;fill-opacity:1;fill-rule:nonzero;stroke:none;stroke-width:0.35277775"
       id="path22814"
       inkscape:connector-curvature="0" />
    <path
       d="m 77.557993,110.89347 h 0.06526 v -0.53411 h -0.06526 z"
       style="fill:#000000;fill-opacity:1;fill-rule:nonzero;stroke:none;stroke-width:0.35277775"
       id="path22816"
       inkscape:connector-curvature="0" />
    <path
       d="m 77.557993,110.89347 h 0.06526 v -0.53411 h -0.06526 z"
       style="fill:#000000;fill-opacity:1;fill-rule:nonzero;stroke:none;stroke-width:0.35277775"
       id="path22818"
       inkscape:connector-curvature="0" />
  </g>
</svg>
